images/rae.svg

<svg height="250" viewBox="0 0 250 250" width="250" xmlns="http://www.w3.org/2000/svg"><g fill="#252836"><path d="m247.851562 77.933594-89.851562-51.699219c-1.519531-.894531-3.445312-.699219-4.757812.484375-1.308594 1.179688-1.703126 3.074219-.972657 4.679688l36.832031 82.222656c.46875 1.042968 1.355469 1.839844 2.445313 2.191406s2.277344.230469 3.269531-.34375l53.035156-30.5c1.265626-.71875 2.046876-2.0625 2.046876-3.515625 0-1.457031-.78125-2.800781-2.046876-3.519531zm0 0"/><path d="m60.898438 113.621094 36.832031-82.222656c.730469-1.605469.335937-3.5-.972657-4.679688-1.3125-1.183594-3.238281-1.378906-4.757812-.484375l-89.851562 51.699219c-1.246094.726562-2.015626 2.058594-2.015626 3.5 0 1.445312.769532 2.777344 2.015626 3.5l53.035156 30.5c.988281.574218 2.171875.703125 3.261718.359375 1.085938-.347657 1.980469-1.136719 2.453126-2.171875zm0 0"/><path d="m121.605469 223.609375-43.445313-96.914063c-.46875-1.050781-.46875-2.253906 0-3.304687l43.433594-97c.652344-1.460937 2.101562-2.402344 3.703125-2.402344 1.597656 0 3.046875.941407 3.699219 2.402344l42.855468 97.292969c.457032 1.042968.457032 2.230468 0 3.269531l-42.851562 96.640625c-.648438 1.460938-2.09375 2.402344-3.691406 2.40625s-3.046875-.933594-3.703125-2.390625zm0 0"/></g></svg>

<svg xmlns="http://www.w3.org/2000/svg" xmlns:xlink="http://www.w3.org/1999/xlink" width="250px" height="250px" viewBox="0 0 250 250" version="1.1">
<g id="surface1">
<path style=" stroke:none;fill-rule:nonzero;fill:rgb(14.509805%,15.686275%,21.176471%);fill-opacity:1;" d="M 247.851562 77.933594 L 158 26.234375 C 156.480469 25.339844 154.554688 25.535156 153.242188 26.71875 C 151.933594 27.898438 151.539062 29.792969 152.269531 31.398438 L 189.101562 113.621094 C 189.570312 114.664062 190.457031 115.460938 191.546875 115.8125 C 192.636719 116.164062 193.824219 116.042969 194.816406 115.46875 L 247.851562 84.96875 C 249.117188 84.25 249.898438 82.90625 249.898438 81.453125 C 249.898438 79.996094 249.117188 78.652344 247.851562 77.933594 Z M 247.851562 77.933594 "/>
<path style=" stroke:none;fill-rule:nonzero;fill:rgb(14.509805%,15.686275%,21.176471%);fill-opacity:1;" d="M 60.898438 113.621094 L 97.730469 31.398438 C 98.460938 29.792969 98.066406 27.898438 96.757812 26.71875 C 95.445312 25.535156 93.519531 25.339844 92 26.234375 L 2.148438 77.933594 C 0.902344 78.660156 0.132812 79.992188 0.132812 81.433594 C 0.132812 82.878906 0.902344 84.210938 2.148438 84.933594 L 55.183594 115.433594 C 56.171875 116.007812 57.355469 116.136719 58.445312 115.792969 C 59.53125 115.445312 60.425781 114.65625 60.898438 113.621094 Z M 60.898438 113.621094 "/>
<path style=" stroke:none;fill-rule:nonzero;fill:rgb(14.509805%,15.686275%,21.176471%);fill-opacity:1;" d="M 121.605469 223.609375 L 78.160156 126.695312 C 77.691406 125.644531 77.691406 124.441406 78.160156 123.390625 L 121.59375 26.390625 C 122.246094 24.929688 123.695312 23.988281 125.296875 23.988281 C 126.894531 23.988281 128.34375 24.929688 128.996094 26.390625 L 171.851562 123.683594 C 172.308594 124.726562 172.308594 125.914062 171.851562 126.953125 L 129 223.59375 C 128.351562 225.054688 126.90625 225.996094 125.308594 226 C 123.710938 226.003906 122.261719 225.066406 121.605469 223.609375 Z M 121.605469 223.609375 "/>
</g>
</svg>
